X: 59
T: Rozproszyłeś nas, Boże, Boże niezmierzony,
C: Mikołaj Gomółka
%%abc-version 2.0
%%abcx-abcm2ps-target-version 5.9.1 (29 Sep 2008)
%%abc-creator hum2abc beta
%%abcx-conversion-date 2021/10/04 07:59:10
%%abc-edited-by Marta Lawrence
%%abcx-initial-encoding-date 2020-02-12
%%humdrum-veritas 3041879863
%%humdrum-veritas-data 1229523878
%%linebreak <none>
%%barnumbers 0
L: 1/4
M: C|
N: Derived from pl-wn--sd-xvi-qu-273--060_gomolka-mikolaj--rozproszyles-nas-boze-boze-niezmierzony.krn
%%staves [1 2 3 4]
V: 1
V: 2 clef=alto
V: 3 clef=tenor
V: 4 clef=bass
K: C
[V:1] A4A2G2 [|] 
[V:2] A,4A,2D2 [|] 
[V:3] D4D2B,2 [|] 
[V:4] D,4D,2G,,2 [|] 
[V:1] ^F2>G2A2G2 [|] 
[V:2] D2D2D2B,2 [|] 
[V:3] A,2A,2F3E [|] 
[V:4] D,2D,2D,2E,2 [|] 
[V:1] A2c2B2A2 [|] 
[V:2] A,2F2DEFE [|] 
[V:3] D2A,2B,2^C2 [|] 
[V:4] F,2F,2G,2A,2 [|] 
[V:1] A2^G2A2E2 [|] 
[V:2] DCD2E2C2 [|] 
[V:3] D2D2^C2A,2 [|] 
[V:4] B,4A,2A,,2 [|] 
[V:1] E2C2=F2E2 [|] 
[V:2] C2C2A,2E,2 [|] 
[V:3] G,2G,2F,G,A,4 [|] 
[V:4] C,2C,2D,2^C,2 [|] 
[V:1] D4C2E2 [|] 
[V:2] F,2D,2E,2C2 [|] 
[V:3] ^G,2A,2A,=G, [|] 
[V:4] D,2B,,2A,,2=C,2 [|] 
[V:1] EDD2D2C2 [|] 
[V:2] F,2G,2A,2A,2 [|] 
[V:3] F,2E,D,E,2E,2 [|] 
[V:4] D,2B,,2A,,2A,,2 [|] 
[V:1] D2B2c3B [|] 
[V:2] A,2B,2G3F [|] 
[V:3] D,2D2E3D [|] 
[V:4] D,2G,2C,4 [|] 
[V:1] A2A2^G2E2 [|] 
[V:2] E2D2E2^C2 [|] 
[V:3] =C2B,A,B,2A,2 [|] 
[V:4] F,2F,2E,2A,,2 [|] 
[V:1] ^F2=G2A2A2 [|] 
[V:2] D2E2E2D2 [|] 
[V:3] A,2C2C2B,A, [|] 
[V:4] D,2C,2F,2F,2 [|] 
[V:1] ^G2A2A4 [|] 
[V:2] E2E2E4 [|] 
[V:3] B,2A,2A,3B, [|] 
[V:4] E,2A,,2A,,4 [|] 
[V:1] A2=G2G3=F [|] 
[V:2] E2>D2=C2B,3 [|] 
[V:3] C2G,4E,4 [|] 
[V:4] A,,B,,C,D,2<E,2D, [|] 
[V:1] E2F2D4 [|] 
[V:2] A,A,4G,2 [|] 
[V:3] D,2D,4 [|] 
[V:4] ^C,2D,=C,B,,A,,B,,2 [|] 
[V:1] ^C2D4=C2 [|] 
[V:2] A,2B,2A,4 [|] 
[V:3] E,2G,F,E,D,E,2 [|] 
[V:4] A,,2G,,2A,,4 [|] 
[V:1] D32 |]  
[V:2] A,32 |]  
[V:3] D,32 |]  
[V:4] D,32 |]  


